X:506
T:Dear Little Shamrock, The
C:Trad.
M:3/4
K:G
G>A|"G"B4 BB|B4G2|"C"A2B2A2|"G"G4"D7"FE|\
"G"D2G2B2|"E7"e2c2B2|"A7"B2A4|"D7"A4 G>A|\
"G"B2c2B2|B2A2G2|"C"A2B2"B7"A2|"Em"G4FE|\
"G"D2G2B2|d2c2B2|"D7"A2"G"G2"C"G2|"G"G4 A2|\
"D7"A4AA|"D7"A4AA|A2F2B2|A2F2AA|\
"Bm"d2^c2B2|"F#m"A3GF2|"A7"E2A3G|"D7"F2D2D2|\
"G"B4BB|B2G2zD|"D7"c4cc|c2A2zF|\
"G"G3AB2|"C"c3de2|"G"d2"D7"c2"G"B2|"D7"A2"G"G2||
